X:3
T:Mille regretz
C:Tielman Susato
S:Susato1551
R:Pavane
M:4/2%org: C|
L:1/2
T: Tenor
K:C -8va
e4|c2f2|e3d/2c/2|Befd|e3c|dec2|ABcA|B2z2:|
|:e2dc|BccA|Bc2B|c2B2|e2e2|e3e|fedc|B2z2:|
|:c2BG|B>cdB|cA2G|Accc|c2A>B|cAGA|G2A2|G2z2:|
